img/power-resets.svg

<svg width="24" height="24" viewBox="0 0 24 24" fill="none" xmlns="http://www.w3.org/2000/svg">
<path d="M16.5624 3H7.43387C4.98918 3 3 5.03143 3 7.52387V16.4761C3 18.9686 4.98918 21 7.43387 21H16.5624C19.0108 21 21 18.9686 21 16.4761V7.52387C21 5.03143 19.0108 3 16.5624 3ZM8.7453 11.7979V11.8255C8.7453 12.2626 8.37979 12.6447 7.94632 12.6447H7.01142C6.57796 12.6447 6.21428 12.2626 6.21428 11.8255V11.7979V7.72224V7.66714C6.25469 7.23367 6.58347 6.85714 7.01142 6.85714H7.94632C8.38346 6.85714 8.7453 7.25204 8.7453 7.69469V11.7979ZM13.6475 17.6149V17.7232C13.6475 18.1824 13.2912 18.4304 12.8394 18.4304H12H11.1606C10.7088 18.4304 10.3524 18.1035 10.3524 17.6443V17.6167V16.4633C10.3524 15.5265 11.0798 14.7643 12 14.7643C12.9202 14.7643 13.6475 15.5265 13.6475 16.4633V17.6149ZM17.7857 11.7979V11.8255C17.7857 12.2626 17.422 12.6447 16.9886 12.6447H16.0133C15.5798 12.6447 15.2143 12.2626 15.2143 11.8255V11.7979V7.72224V7.66714C15.2547 7.23367 15.5853 6.85714 16.0133 6.85714H16.9886C17.422 6.85714 17.7857 7.25204 17.7857 7.69469V11.7979Z" fill="#FFADAD"/>
</svg>

<svg width="24" height="24" fill="none" xmlns="http://www.w3.org/2000/svg"><path d="M16.562 3H7.434C4.989 3 3 5.031 3 7.524v8.952C3 18.97 4.99 21 7.434 21h9.128C19.011 21 21 18.969 21 16.476V7.524C21 5.03 19.01 3 16.562 3zm-7.817 8.798v.027c0 .438-.365.82-.799.82h-.935c-.433 0-.797-.382-.797-.82V7.668c.04-.433.37-.81.797-.81h.935c.437 0 .8.395.8.838v4.103zm4.903 5.817v.108c0 .46-.357.707-.809.707H11.16c-.451 0-.808-.326-.808-.786V16.463c0-.937.728-1.699 1.648-1.699.92 0 1.648.763 1.648 1.7v1.15zm4.138-5.817v.027c0 .438-.364.82-.797.82h-.976c-.433 0-.799-.382-.799-.82V7.668c.04-.433.371-.81.8-.81h.975c.433 0 .797.395.797.838v4.103z" fill="#FFADAD"/></svg>
